X:1
T:Jackie Tar
T:The Cuckoo's Nest
R:hornpipe
M:4/4
K:EDor
Bd | e2ed efge | d2BA BcdB | ABde (3fga ef | d2A2 A2Bd |
edef g2fe | dBGB d2=cB | AGFE DEFA | G2E2 E2 ::
GA | BGEG BGEG | BAGF E2FG | AFDF AFDF | AGFE D2EF |
GFGB g2fe | dBGB d2=cB | AGFE DEFA | G2E2 E2 :|
